X: 1
T:Exercises - Page 7
M:C
L:1/8
Q:80
C:
S:Exercise
K:HP
{Bd}B|
a{Bd}B{e}Ag{Bd}Ba{Bd}B|
a{cd}c|  !
a{cd}ca{cd}c{e}Ag{cd}c|
e{gf}ge{gf}g|
f{gf}gB{gf}gd{gf}gG{gf}gc{gf}gA{gf}g|  !
A{gef}eA{gef}e|
c{gef}ed{gef}ef{gef}eB{gef}eG{gef}e|
A{gef}ed{gef}eA{g}efg{Bd}B{gf}g{fg}f2|  !
g{ef}e|
a2{ef}e2{gcd}c{e}A{Gdc}dg{ef}ed{gdG}d2|
A{GAG}AA{GAG}A|  !
eA{GAG}A2aA{GAG}A2cA{GAG}A2gA{GAG}A2dA{GAG}A2|
e{g}A2{GAG}A{d}c{gef}e3/2{gf}g/2{cd}c{e}A{GAG}A2|
e{g}A3/2{d}c/2{gef}ea{Bd}B{G}A{GAG}A{gf}g{ef}e{ag}a{ef}e2|  !
M:C| |:
{gcd}c{e}A{GAG}A{g}B/2c/2|
{Gdc}d3/2c/2{gBd}B{e}G|  !
{gcd}c{e}A{GAG}A{gf}g|
{ag}a3/2e/2{gf}ga|
{cd}c{e}A{GAG}A{g}B/2c/2|  !
{Gdc}d3/2c/2{gBd}B{e}G|
{g}A{ag}a{ef}e3/2c/2|
{Gdc}d{e}B{gBd}B{G}A:| |:  !
{g}G3/2{d}B/2{gf}g3/2f/2|
{gef}e{gf}g{Bd}B{g}A/2{d}G/2|
{g}A{ag}a{g}a3/2f/2|  !
{gef}e{ag}a{cd}c{g}B/2{d}A/2|1
{g}G3/2{d}B/2{gf}g3/2f/2|
{gef}e{gf}g{Bd}B{g}A/2{d}G/2|  !
{g}A{ag}a{ef}e3/2c/2|
{Gdc}d{e}B{gBd}B{G}A:|2
{gf}ga{ef}ef|  !
{Gdc}d{gf}g{Bd}B{g}A/2{d}G/2|
{g}A{ag}a{ef}e3/2c/2|
{Gdc}d{e}B{gBd}B{G}A|]  !
